X:188
T:Knotted Cord
Z: id:dc-reel-171
M:C
L:1/8
K:A Dorian
A3B AEE2|A2Bd edBA|G3A GEDE|G2BG dGBG|!
A3B AEE2|A2Bd edBA|GABd gfge|dBGA BAA2:|!
eaa2 eaa2|eaab aged|egg2 egg2|egga ged2|!
eaa2 eaa2|eaab aged|BABd gfge|dBGA BAA2:|!

